X:1
T:Title
%%score ( 1 2 ) { 3 | 4 }
L:1/8
Q:1/4=105
M:6/8
K:G
V:1 treble nm="Grand Piano, Soprano"
V:2 treble 
V:3 bass nm="Choir Pad, O What a Day Is Coming"
V:4 bass 
V:1
 D [DG]2 [DG] [FA]2 | [FA][GB][Gd]- [Gd]2- [Gd]/ z/ | z3 z .B2 | G [FA]2- [FA]2- [FA]/ z/ | %4
w: By~D.~C.~John * * *||||
 D [DG]2 [DG] [FA]2 | [FA][GB][Gd]- [Gd]2- [Gd]/ z/ | [Ge] [Gd]2 G [GB]2 | [FA] G2- G2- G/ z/ | %8
w: ||||
 [=FG] [Ec]2 [Ec] [Gc]2 | [Ac] [Gc]2- [Gc] [GB]2 | [GB] [Gd]2 [GB] G2 | %11
w: |||
 [GB] [FA]2- [FA]2- [FA]/ z/ | D [DG]2 [DG] [FA]2 | [FA][GB][Gd]- [Gd]2- [Gd]/ z/ | %14
w: |||
 [Ge] [Gd]2 G [GB]2 | [FA] G2- G2- G/ z/ | GG[FA] [=FB] [Ec]2- | [Ec]6 | [Ec][Ec][GB] [FA] [GB]2- | %19
w: |||||
 [GB]6 | [GB][GB][FA] [EG] [FA]2- | [FA]6 | [GB]/[Ac]/[ce][Bd] [_B^c] [=Bd]2- | [Bd]6 | %24
w: |||||
 [Bd][Bd][Ac] [GB] [Ac]2- | [Ac]6 | [Ac][Ac][GB] [FA] [GB]2- | [GB]6 | [Be][Gd][GB]- [GB] [DA]2 | %29
w: |||||
 [DG] [DG]2- [DG]3- | [DG]3 z3 |] %31
w: ||
V:2
 x6 | x6 | [Ge] [Gd]2 [GB]G-[GA] | x6 | x6 | x6 | x6 | x6 | x6 | x6 | x6 | x6 | x6 | x6 | x6 | x6 | %16
 x6 | x6 | x6 | x6 | x6 | x6 | x6 | x6 | x6 | x6 | x6 | x6 | x6 | x6 | x6 |] %31
V:3
 B, B,2 B, D2 | DDB,- B,2- B,/ z/ | C B,2 DDC | B, D2- D2- D/ z/ | B, B,2 B, D2 | %5
 DDB,- B,2- B,/ z/ | C B,2 B, D2 | C B,2- B,2- B,/ z/ | B,[K:treble] C2 C C2 | C E2- E D2 | %10
 D D2 D D2 | D D2- D2- D/ z/ | B, B,2 B, D2 | DDB,- B,2- B,/ z/ | C B,2 B,[K:treble] D2 | %15
 C B,2- B,2- B,/ z/ | z6 | C C2 C C2 | z6 | D D2 D D2 | z6 | D D2 D D2 | z6 | G, G,2 G, G,2 | z6 | %25
 D D2 D D2 | z6 | G, G,2 G, G,2 | CB,D- D C2 | B, B,2- B,3- | B,3 z3 |] %31
V:4
 G, G,2 G, D,2 | D,G,G,- G,2- G,/ z/ | C, G,2 G, G,2 | G, D,2- D,2- D,/ z/ | G, G,2 G, D,2 | %5
 D,G,G,- G,2- G,/ z/ | C, D,2 D, D,2 | D, G,2- G,2- G,/ z/ | G, C,2 C, E,2 | F, G,2- G, G,2 | %10
 G, G,2 G, B,2 | G, D,2- D,2- D,/ z/ | G, G,2 G, D,2 | D,G,G,- G,2- G,/ z/ | C, D,2 D, D,2 | %15
 D, [G,,G,]2- [G,,G,]2- [G,,G,]/ z/ | z6 | C,C,E, .G,3 | z6 | G,,G,,B,, D, G,2 | z6 | %21
 D,D,F, A, C2 | z6 | G,,G,,B,, .D,3 | z6 | D,D,F, .A,3 | z6 | G,,G,,B,, .D,3 | B,,D,D,- D, D,2 | %29
 [G,,G,] [G,,G,]2- [G,,G,]3- | [G,,G,]3 z3 |] %31

